;FLAVOR:Marlin
;TIME:9926
;Filament used: 5.31555m
;Layer height: 0.1
;MINX:30.4
;MINY:32.9
;MINZ:0.2
;MAXX:90.6
;MAXY:88.1
;MAXZ:15.2
;POSTPROCESSED
;Generated with Cura_SteamEngine 4.7.1
M140 S60
M105
M190 S60
M104 S210
M105
M109 S210
M82 ;absolute extrusion mode
M300 S500 P1000
G28 ;Home
G0 Z1
G0 X0
G92 E0
G0 Z0.5
G1 F1000 Y100 E20
G92 E0
G92 E0
G92 E0
G1 F1500 E-6.5
;LAYER_COUNT:151
;LAYER:0
M107
G0 F1800 X32.555 Y34.644 Z0.2
;TYPE:SKIRT
G1 F1500 E0
G1 F900 X32.963 Y34.303 E0.01857
G1 X33.442 Y33.962 E0.0391
G1 X33.932 Y33.678 E0.05888
G1 X34.464 Y33.425 E0.07946
G1 X34.995 Y33.231 E0.0992
G1 X35.556 Y33.076 E0.11952
G1 X36.125 Y32.976 E0.1397
G1 X36.675 Y32.925 E0.15899
G1 X36.9 Y32.915 E0.16686
G1 X37.825 Y32.9 E0.19916
G1 X83.335 Y32.9 E1.78852
G1 X84.001 Y32.909 E1.81178
G1 X84.593 Y32.946 E1.83249
G1 X84.821 Y32.968 E1.84049
G1 X85.405 Y33.07 E1.8612
G1 X85.918 Y33.203 E1.8797
G1 X86.499 Y33.411 E1.90126
G1 X87.015 Y33.648 E1.92109
G1 X87.504 Y33.929 E1.94078
G1 X87.993 Y34.266 E1.96152
G1 X88.436 Y34.638 E1.98172
G1 X88.847 Y35.045 E2.00192
G1 X89.197 Y35.463 E2.02096
G1 X89.538 Y35.942 E2.0415
G1 X89.822 Y36.432 E2.06128
G1 X90.068 Y36.95 E2.0813
G1 X90.267 Y37.491 E2.10143
G1 X90.424 Y38.056 E2.12191
G1 X90.524 Y38.625 E2.14209
G1 X90.575 Y39.168 E2.16114
G1 X90.585 Y39.398 E2.16918
G1 X90.6 Y40.325 E2.20155
G1 X90.6 Y80.835 E3.61629
G1 X90.591 Y81.501 E3.63955
G1 X90.554 Y82.093 E3.66027
G1 X90.532 Y82.323 E3.66833
G1 X90.433 Y82.895 E3.68861
G1 X90.292 Y83.436 E3.70813
G1 X90.091 Y83.993 E3.72881
G1 X89.867 Y84.485 E3.74769
G1 X89.566 Y85.012 E3.76889
G1 X89.239 Y85.486 E3.789
G1 X88.862 Y85.936 E3.8095
G1 X88.455 Y86.347 E3.8297
G1 X88.037 Y86.697 E3.84874
G1 X87.558 Y87.038 E3.86927
G1 X87.068 Y87.322 E3.88905
G1 X86.551 Y87.568 E3.90905
G1 X86.002 Y87.77 E3.92948
G1 X85.444 Y87.924 E3.94969
G1 X84.875 Y88.024 E3.96987
G1 X84.325 Y88.075 E3.98916
G1 X84.1 Y88.085 E3.99702
G1 X83.175 Y88.1 E4.02933
G1 X37.668 Y88.1 E5.61858
G1 X36.963 Y88.09 E5.6432
G1 X36.194 Y88.035 E5.67013
G1 X35.662 Y87.948 E5.68895
G1 X34.786 Y87.703 E5.72072
G1 X34.226 Y87.472 E5.74187
G1 X33.721 Y87.211 E5.76173
G1 X32.98 Y86.718 E5.79281
G1 X32.575 Y86.374 E5.81137
G1 X31.915 Y85.674 E5.84497
G1 X31.565 Y85.219 E5.86501
G1 X31.26 Y84.728 E5.8852
G1 X31.009 Y84.233 E5.90458
G1 X30.888 Y83.946 E5.91546
G1 X30.706 Y83.41 E5.93523
G1 X30.575 Y82.912 E5.95321
G1 X30.456 Y82.212 E5.97801
G1 X30.43 Y81.845 E5.99086
G1 X30.405 Y81.125 E6.01602
G1 X30.4 Y80.766 E6.02855
G1 X30.4 Y40.148 E7.44706
G1 X30.409 Y39.498 E7.46977
G1 X30.446 Y38.907 E7.49045
G1 X30.468 Y38.679 E7.49844
G1 X30.57 Y38.095 E7.51915
G1 X30.705 Y37.574 E7.53794
G1 X30.909 Y37.007 E7.55899
G1 X31.133 Y36.515 E7.57787
G1 X31.434 Y35.988 E7.59906
G1 X31.766 Y35.507 E7.61947
G1 X32.14 Y35.062 E7.63977
G1 X32.555 Y34.644 E7.66034
G0 F1800 X32.831 Y34.933
G1 F900 X33.47 Y34.428 E7.68879
G1 X33.667 Y34.293 E7.69713
G1 X34.108 Y34.038 E7.71492
G1 X34.627 Y33.791 E7.73499
G1 X35.106 Y33.616 E7.7528
G1 X35.653 Y33.464 E7.77263
G1 X36.166 Y33.374 E7.79082
G1 X36.704 Y33.323 E7.80969
G1 X36.906 Y33.314 E7.81675
G1 X37.766 Y33.3 E7.84679
G1 X83.33 Y33.3 E9.43803
G1 X83.996 Y33.309 E9.46129
G1 X84.563 Y33.345 E9.48113
G1 X84.782 Y33.366 E9.48881
G1 X85.307 Y33.457 E9.50742
G1 X85.812 Y33.588 E9.52564
G1 X86.335 Y33.776 E9.54505
G1 X86.841 Y34.008 E9.56449
G1 X87.28 Y34.261 E9.58219
G1 X87.759 Y34.59 E9.60248
G1 X88.157 Y34.925 E9.62065
G1 X88.559 Y35.322 E9.64038
G1 X89.072 Y35.97 E9.66924
G1 X89.207 Y36.167 E9.67758
G1 X89.462 Y36.608 E9.69537
G1 X89.704 Y37.114 E9.71496
G1 X89.883 Y37.601 E9.73308
G1 X90.036 Y38.153 E9.75308
G1 X90.126 Y38.666 E9.77127
G1 X90.176 Y39.197 E9.7899
G1 X90.186 Y39.405 E9.79717
G1 X90.2 Y40.267 E9.82728
G1 X90.2 Y80.83 E11.24387
G1 X90.191 Y81.496 E11.26713
G1 X90.155 Y82.063 E11.28697
G1 X90.134 Y82.283 E11.29469
G1 X90.045 Y82.798 E11.31294
G1 X89.907 Y83.329 E11.3321
G1 X89.726 Y83.83 E11.3507
G1 X89.506 Y84.314 E11.36927
G1 X89.235 Y84.788 E11.38834
G1 X88.914 Y85.253 E11.40807
G1 X88.575 Y85.657 E11.42649
G1 X88.178 Y86.059 E11.44622
G1 X87.53 Y86.572 E11.47508
G1 X87.333 Y86.707 E11.48342
G1 X86.892 Y86.962 E11.50121
G1 X86.386 Y87.204 E11.5208
G1 X85.892 Y87.385 E11.53918
G1 X85.347 Y87.536 E11.55893
G1 X84.834 Y87.626 E11.57712
G1 X84.296 Y87.677 E11.59599
G1 X84.094 Y87.686 E11.60305
G1 X83.234 Y87.7 E11.63309
G1 X37.674 Y87.7 E13.22419
G1 X36.969 Y87.69 E13.24881
G1 X36.233 Y87.637 E13.27458
G1 X35.571 Y87.517 E13.29808
G1 X34.928 Y87.329 E13.32147
G1 X34.385 Y87.106 E13.34197
G1 X33.921 Y86.865 E13.36023
G1 X33.229 Y86.406 E13.38923
G1 X32.84 Y86.074 E13.40709
G1 X32.214 Y85.408 E13.43901
G1 X31.898 Y84.999 E13.45706
G1 X31.603 Y84.523 E13.47662
G1 X31.257 Y83.791 E13.50489
G1 X31.092 Y83.308 E13.52272
G1 X30.961 Y82.81 E13.5407
G1 X30.854 Y82.18 E13.56302
G1 X30.83 Y81.831 E13.57524
G1 X30.803 Y81.027 E13.60333
G1 X30.8 Y80.762 E13.61259
G1 X30.8 Y40.153 E15.03078
G1 X30.809 Y39.503 E15.05348
G1 X30.845 Y38.937 E15.07329
G1 X30.866 Y38.718 E15.08097
G1 X30.957 Y38.193 E15.09958
G1 X31.09 Y37.681 E15.11805
G1 X31.274 Y37.17 E15.13702
G1 X31.494 Y36.686 E15.15559
G1 X31.765 Y36.212 E15.17466
G1 X32.09 Y35.741 E15.19464
G1 X32.427 Y35.341 E15.21291
G1 X32.831 Y34.933 E15.23296
G0 F1800 X32.956 Y35.37
G1 F900 X33.434 Y34.95 E15.25518
G1 X33.891 Y34.624 E15.27478
G1 X34.601 Y34.243 E15.30292
G1 X35.216 Y34 E15.32602
G1 X35.751 Y33.852 E15.3454
G1 X36.528 Y33.739 E15.37282
G1 X36.913 Y33.714 E15.3863
G1 X37.773 Y33.7 E15.41634
G1 X83.324 Y33.7 E17.00712
G1 X83.99 Y33.709 E17.03038
G1 X84.533 Y33.744 E17.04938
G1 X85.209 Y33.845 E17.07325
G1 X85.707 Y33.974 E17.09122
G1 X86.485 Y34.282 E17.12044
G1 X87.057 Y34.593 E17.14318
G1 X87.525 Y34.915 E17.16302
G1 X88.118 Y35.444 E17.19077
G1 X88.55 Y35.934 E17.21358
G1 X88.876 Y36.391 E17.23319
G1 X89.257 Y37.101 E17.26133
G1 X89.498 Y37.712 E17.28427
G1 X89.648 Y38.251 E17.3038
G1 X89.761 Y39.028 E17.33123
G1 X89.786 Y39.411 E17.34463
G1 X89.8 Y40.273 E17.37474
G1 X89.8 Y80.824 E18.79091
G1 X89.791 Y81.49 E18.81417
G1 X89.756 Y82.033 E18.83317
G1 X89.656 Y82.701 E18.85676
G1 X89.522 Y83.221 E18.87551
G1 X89.22 Y83.981 E18.90407
G1 X88.904 Y84.564 E18.92723
G1 X88.589 Y85.019 E18.94656
G1 X88.056 Y85.618 E18.97456
G1 X87.566 Y86.05 E18.99737
G1 X87.109 Y86.376 E19.01698
G1 X86.399 Y86.757 E19.04512
G1 X85.782 Y87.001 E19.06829
G1 X85.249 Y87.148 E19.0876
G1 X84.472 Y87.261 E19.11502
G1 X84.087 Y87.286 E19.12849
G1 X83.227 Y87.3 E19.15853
G1 X37.68 Y87.3 E20.74917
G1 X36.975 Y87.29 E20.7738
G1 X36.272 Y87.239 E20.79841
G1 X35.67 Y87.13 E20.81978
G1 X35.07 Y86.955 E20.8416
G1 X34.544 Y86.739 E20.86146
G1 X34.012 Y86.453 E20.88256
G1 X33.479 Y86.093 E20.90502
G1 X32.838 Y85.508 E20.93532
G1 X32.232 Y84.778 E20.96846
G1 X31.947 Y84.318 E20.98736
G1 X31.625 Y83.635 E21.01373
G1 X31.479 Y83.206 E21.02955
G1 X31.348 Y82.708 E21.04754
G1 X31.253 Y82.149 E21.06734
G1 X31.23 Y81.817 E21.07896
G1 X31.203 Y81.022 E21.10674
G1 X31.2 Y80.757 E21.116
G1 X31.2 Y40.159 E22.53381
G1 X31.209 Y39.509 E22.55651
G1 X31.244 Y38.967 E22.57548
G1 X31.345 Y38.291 E22.59935
G1 X31.476 Y37.787 E22.61753
G1 X31.78 Y37.019 E22.64638
G1 X32.096 Y36.436 E22.66954
G1 X32.415 Y35.975 E22.68911
G1 X32.956 Y35.37 E22.71746
G1 F1500 E16.21746
;MESH:case_1-2104262.STL
G0 F1800 X36.444 Y36.283
G0 X37.031 Y37.519
G0 X84.328 Y37.631
G0 X84.345 Y37.533
;TYPE:WALL-INNER
G1 F1500 E22.71746
G1 F900 X84.679 Y37.622 E22.72895
G1 X84.993 Y37.769 E22.74049
G1 X85.287 Y37.975 E22.75243
G1 X85.525 Y38.213 E22.76362
G1 X85.731 Y38.507 E22.77556
G1 X85.878 Y38.821 E22.78709
G1 X85.967 Y39.155 E22.79859
G1 X86 Y39.531 E22.81114
G1 X86 Y81.469 E24.20601
G1 X85.967 Y81.846 E24.21859
G1 X85.878 Y82.178 E24.23003
G1 X85.731 Y82.493 E24.24159
G1 X85.525 Y82.787 E24.25353
G1 X85.287 Y83.025 E24.26472
G1 X84.993 Y83.231 E24.27666
G1 X84.679 Y83.378 E24.28819
G1 X84.345 Y83.467 E24.29969
G1 X83.969 Y83.5 E24.31224
G1 X37.041 Y83.5 E25.87308
G1 X36.684 Y83.471 E25.88499
G1 X36.39 Y83.401 E25.89504
G1 X36.089 Y83.277 E25.90587
G1 X35.826 Y83.116 E25.91612
G1 X35.587 Y82.91 E25.92662
G1 X35.384 Y82.674 E25.93697
G1 X35.223 Y82.411 E25.94723
G1 X35.099 Y82.111 E25.95802
G1 X35.032 Y81.834 E25.9675
G1 X35 Y81.184 E25.98915
G1 X35 Y39.531 E27.37453
G1 X35.033 Y39.155 E27.38709
G1 X35.122 Y38.821 E27.39858
G1 X35.269 Y38.507 E27.41012
G1 X35.475 Y38.213 E27.42206
G1 X35.713 Y37.975 E27.43325
G1 X36.007 Y37.769 E27.44519
G1 X36.321 Y37.622 E27.45672
G1 X36.655 Y37.533 E27.46822
G1 X37.031 Y37.5 E27.48077
G1 X83.969 Y37.5 E29.04194
G1 X84.345 Y37.533 E29.05449
G0 F1800 X84.416 Y37.138
;TYPE:WALL-OUTER
G1 F900 X84.815 Y37.245 E29.06795
G1 X85.196 Y37.423 E29.08166
G1 X85.546 Y37.668 E29.09559
G1 X85.832 Y37.954 E29.10877
G1 X86.077 Y38.304 E29.1227
G1 X86.255 Y38.685 E29.1364
G1 X86.362 Y39.084 E29.14987
G1 X86.4 Y39.519 E29.1641
G1 X86.4 Y81.481 E30.53185
G1 X86.362 Y81.915 E30.54605
G1 X86.255 Y82.315 E30.55955
G1 X86.077 Y82.696 E30.57325
G1 X85.832 Y83.046 E30.58718
G1 X85.546 Y83.332 E30.60036
G1 X85.196 Y83.577 E30.61429
G1 X84.815 Y83.755 E30.628
G1 X84.416 Y83.862 E30.64146
G1 X83.981 Y83.9 E30.65569
G1 X37.021 Y83.9 E32.18635
G1 X36.623 Y83.868 E32.19937
G1 X36.264 Y83.782 E32.2114
G1 X35.91 Y83.636 E32.22388
G1 X35.59 Y83.44 E32.23611
G1 X35.305 Y83.195 E32.24836
G1 X35.06 Y82.91 E32.26061
G1 X34.864 Y82.59 E32.27284
G1 X34.718 Y82.236 E32.28532
G1 X34.634 Y81.89 E32.29693
G1 X34.6 Y81.204 E32.31932
G1 X34.6 Y39.519 E33.67804
G1 X34.638 Y39.084 E33.69227
G1 X34.745 Y38.685 E33.70574
G1 X34.923 Y38.304 E33.71944
G1 X35.168 Y37.954 E33.73337
G1 X35.454 Y37.668 E33.74655
G1 X35.804 Y37.423 E33.76048
G1 X36.185 Y37.245 E33.77418
G1 X36.584 Y37.138 E33.78765
G1 X37.019 Y37.1 E33.80188
G1 X83.981 Y37.1 E35.3326
G1 X84.416 Y37.138 E35.34684
G0 F1800 X84.609 Y37.189
G0 X84.274 Y37.917
;TYPE:SKIN
G1 F900 X84.545 Y37.99 E35.35757
G1 X84.794 Y38.107 E35.3681
G1 X85.043 Y38.281 E35.37971
G1 X85.219 Y38.457 E35.38923
G1 X85.393 Y38.706 E35.40085
G1 X85.51 Y38.955 E35.41138
G1 X85.583 Y39.226 E35.42211
G1 X85.61 Y39.531 E35.43382
G1 X85.61 Y81.469 E37.03792
G1 X85.583 Y81.773 E37.04959
G1 X85.51 Y82.045 E37.06036
G1 X85.393 Y82.294 E37.07089
G1 X85.219 Y82.543 E37.0825
G1 X85.043 Y82.719 E37.09202
G1 X84.794 Y82.893 E37.10364
G1 X84.545 Y83.01 E37.11417
G1 X84.274 Y83.083 E37.1249
G1 X83.959 Y83.11 E37.13699
G1 X37.047 Y83.11 E38.93134
G1 X36.754 Y83.086 E38.94258
G1 X36.509 Y83.028 E38.95221
G1 X36.265 Y82.927 E38.96231
G1 X36.056 Y82.799 E38.97169
G1 X35.861 Y82.632 E38.98151
G1 X35.705 Y82.449 E38.99071
G1 X35.57 Y82.231 E39.00051
G1 X35.471 Y81.989 E39.01051
G1 X35.42 Y81.781 E39.01871
G1 X35.39 Y81.184 E39.04157
G1 X35.39 Y39.531 E40.63476
G1 X35.417 Y39.226 E40.64647
G1 X35.49 Y38.955 E40.65721
G1 X35.607 Y38.706 E40.66773
G1 X35.781 Y38.457 E40.67935
G1 X35.957 Y38.281 E40.68887
G1 X36.206 Y38.107 E40.70049
G1 X36.455 Y37.99 E40.71101
G1 X36.726 Y37.917 E40.72175
G1 X37.041 Y37.89 E40.73384
G1 X83.959 Y37.89 E42.52841
G1 X84.274 Y37.917 E42.54051
G0 F1800 X85.2 Y38.746
G1 F900 X85.2 Y82.255 E44.20469
G0 F1800 X84.8 Y82.669
G1 F900 X84.8 Y38.332 E45.90054
G0 F1800 X84.4 Y38.137
G1 F900 X84.4 Y82.864 E47.61131
G0 F1800 X84 Y82.927
G1 F900 X84 Y38.074 E49.3269
G0 F1800 X83.6 Y38.07
G1 F900 X83.6 Y82.93 E51.04276
G0 F1800 X83.2 Y82.93
G1 F900 X83.2 Y38.07 E52.75862
G0 F1800 X82.8 Y38.07
G1 F900 X82.8 Y82.93 E54.47447
G0 F1800 X82.4 Y82.93
G1 F900 X82.4 Y38.07 E56.19033
G0 F1800 X82 Y38.07
G1 F900 X82 Y82.93 E57.90619
G0 F1800 X81.6 Y82.93
G1 F900 X81.6 Y38.07 E59.62204
G0 F1800 X81.2 Y38.07
G1 F900 X81.2 Y82.93 E61.3379
G0 F1800 X80.8 Y82.93
G1 F900 X80.8 Y38.07 E63.05376
G0 F1800 X80.4 Y38.07
G1 F900 X80.4 Y82.93 E64.76962
G0 F1800 X80 Y82.93
G1 F900 X80 Y38.07 E66.48547
G0 F1800 X79.6 Y38.07
G1 F900 X79.6 Y82.93 E68.20133
G0 F1800 X79.2 Y82.93
G1 F900 X79.2 Y38.07 E69.91719
G0 F1800 X78.8 Y38.07
G1 F900 X78.8 Y82.93 E71.63304
G0 F1800 X78.4 Y82.93
G1 F900 X78.4 Y38.07 E73.3489
G0 F1800 X78 Y38.07
G1 F900 X78 Y82.93 E75.06476
G0 F1800 X77.6 Y82.93
G1 F900 X77.6 Y38.07 E76.78061
G0 F1800 X77.2 Y38.07
G1 F900 X77.2 Y82.93 E78.49647
G0 F1800 X76.8 Y82.93
G1 F900 X76.8 Y38.07 E80.21233
G0 F1800 X76.4 Y38.07
G1 F900 X76.4 Y82.93 E81.92819
G0 F1800 X76 Y82.93
G1 F900 X76 Y38.07 E83.64404
G0 F1800 X75.6 Y38.07
G1 F900 X75.6 Y82.93 E85.3599
G0 F1800 X75.2 Y82.93
G1 F900 X75.2 Y38.07 E87.07576
G0 F1800 X74.8 Y38.07
G1 F900 X74.8 Y82.93 E88.79161
G0 F1800 X74.4 Y82.93
G1 F900 X74.4 Y38.07 E90.50747
G0 F1800 X74 Y38.07
G1 F900 X74 Y82.93 E92.22333
G0 F1800 X73.6 Y82.93
G1 F900 X73.6 Y38.07 E93.93919
G0 F1800 X73.2 Y38.07
G1 F900 X73.2 Y82.93 E95.65504
G0 F1800 X72.8 Y82.93
G1 F900 X72.8 Y38.07 E97.3709
G0 F1800 X72.4 Y38.07
G1 F900 X72.4 Y82.93 E99.08676
G0 F1800 X72 Y82.93
G1 F900 X72 Y38.07 E100.80261
G0 F1800 X71.6 Y38.07
G1 F900 X71.6 Y82.93 E102.51847
G0 F1800 X71.2 Y82.93
G1 F900 X71.2 Y38.07 E104.23433
G0 F1800 X70.8 Y38.07
G1 F900 X70.8 Y82.93 E105.95019
G0 F1800 X70.4 Y82.93
G1 F900 X70.4 Y38.07 E107.66604
G0 F1800 X70 Y38.07
G1 F900 X70 Y82.93 E109.3819
G0 F1800 X69.6 Y82.93
G1 F900 X69.6 Y38.07 E111.09776
G0 F1800 X69.2 Y38.07
G1 F900 X69.2 Y82.93 E112.81361
G0 F1800 X68.8 Y82.93
G1 F900 X68.8 Y38.07 E114.52947
G0 F1800 X68.4 Y38.07
G1 F900 X68.4 Y82.93 E116.24533
G0 F1800 X68 Y82.93
G1 F900 X68 Y38.07 E117.96119
G0 F1800 X67.6 Y38.07
G1 F900 X67.6 Y82.93 E119.67704
G0 F1800 X67.2 Y82.93
G1 F900 X67.2 Y38.07 E121.3929
G0 F1800 X66.8 Y38.07
G1 F900 X66.8 Y82.93 E123.10876
G0 F1800 X66.4 Y82.93
G1 F900 X66.4 Y38.07 E124.82461
G0 F1800 X66 Y38.07
G1 F900 X66 Y82.93 E126.54047
G0 F1800 X65.6 Y82.93
G1 F900 X65.6 Y38.07 E128.25633
G0 F1800 X65.2 Y38.07
G1 F900 X65.2 Y82.93 E129.97219
G0 F1800 X64.8 Y82.93
G1 F900 X64.8 Y38.07 E131.68804
G0 F1800 X64.4 Y38.07
G1 F900 X64.4 Y82.93 E133.4039
G0 F1800 X64 Y82.93
G1 F900 X64 Y38.07 E135.11976
G0 F1800 X63.6 Y38.07
G1 F900 X63.6 Y82.93 E136.83561
G0 F1800 X63.2 Y82.93
G1 F900 X63.2 Y38.07 E138.55147
G0 F1800 X62.8 Y38.07
G1 F900 X62.8 Y82.93 E140.26733
G0 F1800 X62.4 Y82.93
G1 F900 X62.4 Y38.07 E141.98318
G0 F1800 X62 Y38.07
G1 F900 X62 Y82.93 E143.69904
G0 F1800 X61.6 Y82.93
G1 F900 X61.6 Y38.07 E145.4149
G0 F1800 X61.2 Y38.07
G1 F900 X61.2 Y82.93 E147.13076
G0 F1800 X60.8 Y82.93
G1 F900 X60.8 Y38.07 E148.84661
G0 F1800 X60.4 Y38.07
G1 F900 X60.4 Y82.93 E150.56247
G0 F1800 X60 Y82.93
G1 F900 X60 Y38.07 E152.27833
G0 F1800 X59.6 Y38.07
G1 F900 X59.6 Y82.93 E153.99418
G0 F1800 X59.2 Y82.93
G1 F900 X59.2 Y38.07 E155.71004
G0 F1800 X58.8 Y38.07
G1 F900 X58.8 Y82.93 E157.4259
G0 F1800 X58.4 Y82.93
G1 F900 X58.4 Y38.07 E159.14176
G0 F1800 X58 Y38.07
G1 F900 X58 Y82.93 E160.85761
G0 F1800 X57.6 Y82.93
G1 F900 X57.6 Y38.07 E162.57347
G0 F1800 X57.2 Y38.07
G1 F900 X57.2 Y82.93 E164.28933
G0 F1800 X56.8 Y82.93
G1 F900 X56.8 Y38.07 E166.00518
G0 F1800 X56.4 Y38.07
G1 F900 X56.4 Y82.93 E167.72104
G0 F1800 X56 Y82.93
G1 F900 X56 Y38.07 E169.4369
G0 F1800 X55.6 Y38.07
G1 F900 X55.6 Y82.93 E171.15276
G0 F1800 X55.2 Y82.93
G1 F900 X55.2 Y38.07 E172.86861
G0 F1800 X54.8 Y38.07
G1 F900 X54.8 Y82.93 E174.58447
G0 F1800 X54.4 Y82.93
G1 F900 X54.4 Y38.07 E176.30033
G0 F1800 X54 Y38.07
G1 F900 X54 Y82.93 E178.01618
G0 F1800 X53.6 Y82.93
G1 F900 X53.6 Y38.07 E179.73204
G0 F1800 X53.2 Y38.07
G1 F900 X53.2 Y82.93 E181.4479
G0 F1800 X52.8 Y82.93
G1 F900 X52.8 Y38.07 E183.16376
G0 F1800 X52.4 Y38.07
G1 F900 X52.4 Y82.93 E184.87961
G0 F1800 X52 Y82.93
G1 F900 X52 Y38.07 E186.59547
G0 F1800 X51.6 Y38.07
G1 F900 X51.6 Y82.93 E188.31133
G0 F1800 X51.2 Y82.93
G1 F900 X51.2 Y38.07 E190.02718
G0 F1800 X50.8 Y38.07
G1 F900 X50.8 Y82.93 E191.74304
G0 F1800 X50.4 Y82.93
G1 F900 X50.4 Y38.07 E193.4589
G0 F1800 X50 Y38.07
G1 F900 X50 Y82.93 E195.17476
G0 F1800 X49.6 Y82.93
G1 F900 X49.6 Y38.07 E196.89061
G0 F1800 X49.2 Y38.07
G1 F900 X49.2 Y82.93 E198.60647
G0 F1800 X48.8 Y82.93
G1 F900 X48.8 Y38.07 E200.32233
G0 F1800 X48.4 Y38.07
G1 F900 X48.4 Y82.93 E202.03818
G0 F1800 X48 Y82.93
G1 F900 X48 Y38.07 E203.75404
G0 F1800 X47.6 Y38.07
